app/component-library/components/Icons/Icon/assets/send-1.svg

<svg width="24" height="24" viewBox="0 0 24 24" fill="none" xmlns="http://www.w3.org/2000/svg">
<path d="M16.4209 2.96004L7.39088 5.96004C1.32088 7.99004 1.32088 11.3 7.39088 13.32L10.0709 14.21L10.9609 16.89C12.9809 22.96 16.3009 22.96 18.3209 16.89L21.3309 7.87004C22.6709 3.82004 20.4709 1.61004 16.4209 2.96004ZM16.7409 8.34004L12.9409 12.16C12.7909 12.31 12.6009 12.38 12.4109 12.38C12.2209 12.38 12.0309 12.31 11.8809 12.16C11.5909 11.87 11.5909 11.39 11.8809 11.1L15.6809 7.28004C15.9709 6.99004 16.4509 6.99004 16.7409 7.28004C17.0309 7.57004 17.0309 8.05004 16.7409 8.34004Z" fill="currentColor"/>
</svg>

<svg xmlns="http://www.w3.org/2000/svg" width="24" height="24" viewBox="0 0 24 24" fill="none"><path fill="currentColor" d="m16.42 2.96-9.03 3c-6.07 2.03-6.07 5.34 0 7.36l2.68.89.89 2.68c2.02 6.07 5.34 6.07 7.36 0l3.01-9.02c1.34-4.05-.86-6.26-4.91-4.91Zm.32 5.38-3.8 3.82c-.15.15-.34.22-.53.22s-.38-.07-.53-.22a.754.754 0 0 1 0-1.06l3.8-3.82c.29-.29.77-.29 1.06 0 .29.29.29.77 0 1.06Z"/></svg>
